X: 2736
T: Banks Of Spey, The
R: strathspey
M: 4/4
K: Adorian
|:E<AA>B A>Bc<e|d>cB<A G2A2|E<AA>B A>Bc<d|e>cd<e g2 g>g|
a>ge<c d>eg<a|e<gg>d B<GG>A|E<AA>B c>de<g|1 e>dc<B B<AA>G:|2 e>dc<B B<AA>c||
|:E<AA>c E<AA>c|B>c d/c/B/A/ G2 G>B|A<EA>c A<EA>c|e>cd<e g2g>g|
a>ge<c d>eg<a|e<gg>d B<GG>A|E<AA>B c>de<g|1 e>dc<B A2 A>c:|2 e>dc<B A2 A2||

